Sources/FrostedUI/Resources/Icons.xcassets/volumeOff24.imageset/volume-off-24.svg

<svg width="24" height="24" viewBox="0 0 24 24" fill="none" xmlns="http://www.w3.org/2000/svg" data-fui-icon="true">
  <path
    fill-rule="evenodd"
    clip-rule="evenodd"
    d="M10.3945 3.72387C11.463 2.79833 13.1248 3.55733 13.125 4.97094V19.0295C13.1246 20.4429 11.4629 21.2019 10.3945 20.2766L7.10449 17.425C6.69541 17.0705 6.17219 16.8752 5.63086 16.8752H4.125C2.88244 16.8752 1.87513 15.8678 1.875 14.6252V9.37524C1.875 8.1326 2.88236 7.12524 4.125 7.12524H5.63086C6.17214 7.12524 6.69543 6.9299 7.10449 6.57544L10.3945 3.72387ZM11.625 4.97094C11.6248 4.84266 11.474 4.77381 11.377 4.85766L8.08691 7.70922C7.40514 8.30001 6.533 8.62524 5.63086 8.62524H4.125C3.71079 8.62524 3.375 8.96103 3.375 9.37524V14.6252C3.37513 15.0393 3.71087 15.3752 4.125 15.3752H5.63086C6.53305 15.3752 7.40513 15.7004 8.08691 16.2913L11.377 19.1428C11.474 19.2265 11.6246 19.1576 11.625 19.0295V4.97094ZM21.2197 9.21997C21.5126 8.92707 21.9874 8.92707 22.2803 9.21997C22.573 9.51287 22.5731 9.98766 22.2803 10.2805L20.5605 12.0002L22.2803 13.72C22.573 14.0129 22.5731 14.4877 22.2803 14.7805C21.9874 15.0732 21.5126 15.0732 21.2197 14.7805L19.5 13.0608L17.7803 14.7805C17.4874 15.0732 17.0126 15.0732 16.7197 14.7805C16.4269 14.4877 16.427 14.0129 16.7197 13.72L18.4395 12.0002L16.7197 10.2805C16.4269 9.98766 16.427 9.51287 16.7197 9.21997C17.0126 8.92707 17.4874 8.92707 17.7803 9.21997L19.5 10.9397L21.2197 9.21997Z"
    fill="currentColor"
  />
</svg>

<svg xmlns="http://www.w3.org/2000/svg" width="24" height="24" fill="none" data-fui-icon="true" viewBox="0 0 24 24"><path fill="currentColor" fill-rule="evenodd" d="M10.395 3.724c1.068-.926 2.73-.167 2.73 1.247v14.058c0 1.414-1.662 2.173-2.73 1.248l-3.29-2.852a2.25 2.25 0 0 0-1.474-.55H4.125a2.25 2.25 0 0 1-2.25-2.25v-5.25a2.25 2.25 0 0 1 2.25-2.25h1.506a2.25 2.25 0 0 0 1.473-.55zm1.23 1.247a.15.15 0 0 0-.248-.113l-3.29 2.851a3.75 3.75 0 0 1-2.456.916H4.125a.75.75 0 0 0-.75.75v5.25c0 .414.336.75.75.75h1.506a3.75 3.75 0 0 1 2.456.916l3.29 2.852a.15.15 0 0 0 .248-.114zM21.22 9.22a.75.75 0 1 1 1.06 1.06L20.56 12l1.72 1.72a.75.75 0 0 1-1.06 1.06l-1.72-1.72-1.72 1.72a.75.75 0 0 1-1.06-1.06L18.44 12l-1.72-1.72a.75.75 0 0 1 1.06-1.06l1.72 1.72z" clip-rule="evenodd"/></svg>
